T: Bonnie Scotland
M: 4/4
L: 1/8
K: Fmaj
|: FGFG Ac c2 | AGAF GFDC | DFFG Ac c2 | dfeg fdcA :|2 dfeg f3 ||fgaf fd c2 | defd cA A2 | fgaf fd c2 | dfeg f3 e |fgaf fd c2 | defd cAAG | FGFG Ac ~c2 | dfeg f3 A ||
